storage/app/icons/phosphoricons/thin/credit-card-thin.svg

<svg xmlns="http://www.w3.org/2000/svg" fill="currentColor" viewBox="0 0 256 256"><path d="M224 52H32a12 12 0 0 0-12 12v128a12 12 0 0 0 12 12h192a12 12 0 0 0 12-12V64a12 12 0 0 0-12-12M32 60h192a4 4 0 0 1 4 4v28H28V64a4 4 0 0 1 4-4m192 136H32a4 4 0 0 1-4-4v-92h200v92a4 4 0 0 1-4 4m-20-28a4 4 0 0 1-4 4h-32a4 4 0 0 1 0-8h32a4 4 0 0 1 4 4m-64 0a4 4 0 0 1-4 4h-16a4 4 0 0 1 0-8h16a4 4 0 0 1 4 4"/></svg>

<svg xmlns="http://www.w3.org/2000/svg" viewBox="0 0 256 256" fill="currentColor"><path d="M224,52H32A12,12,0,0,0,20,64V192a12,12,0,0,0,12,12H224a12,12,0,0,0,12-12V64A12,12,0,0,0,224,52ZM32,60H224a4,4,0,0,1,4,4V92H28V64A4,4,0,0,1,32,60ZM224,196H32a4,4,0,0,1-4-4V100H228v92A4,4,0,0,1,224,196Zm-20-28a4,4,0,0,1-4,4H168a4,4,0,0,1,0-8h32A4,4,0,0,1,204,168Zm-64,0a4,4,0,0,1-4,4H120a4,4,0,0,1,0-8h16A4,4,0,0,1,140,168Z"/></svg>
